X:19006
T:Xiraldilla (CT 223)
R:Xiraldilla
C:Tradicional
S:Msica Tradicional Asturiana, (C) Tello & Tito. Asturies, 2001.
S:http://pagina.de/MusTradAst <telloytito@asturies.org>
N:Xiraldilla, dictada por Laureano lvarez, "El Revs", de treinta aos, de Uviu.
O:Uviu
A:Asturies
Z:Cancioneru de Torner 223
M:3/8
L:1/8
Q:3/8=88
W:-Tpame, tpame, tpame,
W:tpame que tengo fro.
W:
W:-Cmo quieres que te tape,
W:si yo no soy tu marido.
W:
W:-Tpame, tpame, tpame,
W:tpame que tengo fro.
K:G
|A>GF|AAA|B>AG-|G3|
A>GF|AAA|(B>A)G-|G2z|
c>BA|ccc|(d>c)B-|B3|
A>GF|AAA|(B>A)G-|G2z|
A>GF|AAA|B>AG-|G3|
A>GF|AAA|(B>A)G-|G2z||
